packages/core/src/svgs/tokens/branded/USDD.svg

<svg width="24" height="24" viewBox="0 0 24 24" fill="none" xmlns="http://www.w3.org/2000/svg">
<path d="M8.71803 4.94177C8.50629 4.94177 8.32983 5.15352 8.32983 5.41232V5.6476C8.32983 5.9064 8.50629 6.11815 8.71803 6.11815H16.0586C16.2704 6.11815 16.4467 5.9064 16.4467 5.6476V5.41232C16.4467 5.15352 16.2704 4.94177 16.0586 4.94177H8.71803ZM11.706 6.41223V19.264C11.706 19.4758 11.5472 19.6523 11.3531 19.6523H11.1766C10.9825 19.6523 10.8238 19.4758 10.8238 19.264V6.41223H11.706ZM13.4706 6.41223V19.264C13.4706 19.4758 13.3117 19.6523 13.1176 19.6523H12.9411C12.7471 19.6523 12.5883 19.4758 12.5883 19.264V6.41223H13.4706Z" fill="#216C58"/>
<path d="M11.1764 9.44728C11.5062 9.33748 11.8524 9.28574 12.1998 9.29439C12.8116 9.29439 13.2703 9.41201 13.5939 9.62377C13.8291 9.77666 13.982 9.97663 14.0644 10.2119C14.1526 10.4472 14.3703 10.6707 14.6702 10.6707H16.4524C16.77 10.6707 17.0582 10.4061 17.0112 10.059C16.9392 9.53553 16.7302 9.04049 16.4053 8.62379C15.9936 8.09443 15.429 7.68271 14.7113 7.39449C13.9938 7.1004 13.1586 6.95923 12.2175 6.95923C11.2882 6.95923 10.453 7.1004 9.71774 7.39449C9.03368 7.64299 8.42574 8.06449 7.95314 8.61791C7.52077 9.14627 7.29131 9.81166 7.30614 10.4942C7.29225 10.8967 7.37466 11.2966 7.54653 11.6609C7.7184 12.0251 7.97477 12.343 8.29429 12.5882C8.92953 13.094 9.78829 13.4586 10.8588 13.6881L12.2116 13.9881C12.8233 14.1233 14.1761 14.3292 14.1761 15.1821C14.1761 16.1349 12.8704 16.3466 12.1645 16.3466C11.3235 16.3466 10.2235 16.1055 9.97068 15.1762C9.9 14.9233 9.67657 14.6821 9.37065 14.6821H7.57671C7.49892 14.6809 7.42178 14.6961 7.35029 14.7269C7.27881 14.7575 7.21459 14.8029 7.16185 14.86C7.10912 14.9172 7.06903 14.9849 7.04423 15.0586C7.01943 15.1323 7.01047 15.2105 7.01793 15.2879C7.0944 15.9467 7.31202 16.5113 7.67669 16.9937C8.15148 17.583 8.78376 18.0257 9.50008 18.2701C10.2706 18.5524 11.1705 18.6876 12.194 18.6876C13.2233 18.6876 14.1114 18.5524 14.8585 18.2758C15.5385 18.0416 16.1395 17.6219 16.5936 17.0643C17.0074 16.5272 17.2273 15.8659 17.2171 15.1879C17.2221 14.7429 17.1226 14.3029 16.9264 13.9036C16.7302 13.504 16.4429 13.1563 16.0877 12.8881C15.714 12.598 15.2998 12.3642 14.8585 12.1941C13.8173 11.7823 11.2528 11.7882 10.5059 10.7471C10.4293 10.6354 10.3882 10.506 10.4 10.3472V10.3413C10.4 10.1472 10.4589 9.97663 10.5883 9.82374C10.7176 9.67071 10.9118 9.54143 11.1764 9.44728Z" fill="#216C58"/>
<path d="M11.7057 8.68854H10.8235V10.0413H11.7057V8.68854ZM11.7057 13.4998H10.8235V14.841H11.7057V13.4998ZM11.7057 17.5348H10.8235V18.8818H11.7057V17.5348ZM13.4704 8.68854H12.588V10.0413H13.4704V8.68854ZM13.4704 13.4998H12.588V14.841H13.4704V13.4998ZM13.4704 17.5348H12.588V18.8818H13.4704V17.5348Z" fill="#216C58"/>
<path d="M21.7107 12.5764C21.5579 12.5764 21.4225 12.6941 21.4109 12.847C21.1948 15.1917 20.1094 17.371 18.3678 18.9558C16.6262 20.5407 14.3547 21.4164 11.9998 21.4109C7.05912 21.4109 3.0183 17.6525 2.58893 12.847C2.58035 12.7731 2.54517 12.7049 2.48996 12.6551C2.43475 12.6054 2.3633 12.5774 2.28895 12.5764C2.11837 12.5764 1.98898 12.7175 2.00074 12.8822C2.22707 15.3765 3.37895 17.6955 5.22958 19.3827C7.08022 21.0701 9.49543 22.0035 11.9998 21.9991C17.2465 21.9991 21.552 17.9936 21.999 12.8822C22.0024 12.8428 21.9973 12.803 21.9843 12.7656C21.9711 12.7281 21.9504 12.6939 21.9232 12.6651C21.8959 12.6361 21.8629 12.6134 21.8264 12.5981C21.7898 12.5829 21.7504 12.5755 21.7107 12.5764ZM2.29483 11.4236C2.44776 11.4236 2.58304 11.306 2.59481 11.153C2.81064 8.80919 3.89533 6.63087 5.63568 5.04617C7.37602 3.46147 9.64613 2.585 11.9998 2.58905C16.9406 2.58905 20.9814 6.34755 21.4109 11.153C21.4225 11.306 21.5579 11.4236 21.7107 11.4236C21.8813 11.4236 22.0108 11.2824 21.999 11.1177C21.7726 8.62359 20.6208 6.30455 18.7702 4.6172C16.9196 2.92987 14.5043 1.99649 11.9998 2.00087C9.49543 1.99649 7.08022 2.92987 5.22958 4.6172C3.37895 6.30455 2.22707 8.62359 2.00074 11.1177C1.98898 11.2824 2.11837 11.4236 2.28895 11.4236H2.29483Z" fill="#216C58"/>
</svg>

<svg xmlns="http://www.w3.org/2000/svg" width="24" height="24" fill="none" viewBox="0 0 24 24">
    <path fill="#216C58" d="M8.718 4.942c-.212 0-.388.212-.388.47v.236c0 .258.176.47.388.47h7.34c.212 0 .389-.212.389-.47v-.236c0-.258-.177-.47-.388-.47zm2.988 1.47v12.852c0 .212-.159.388-.353.388h-.176c-.194 0-.353-.176-.353-.388V6.412zm1.765 0v12.852c0 .212-.16.388-.353.388h-.177c-.194 0-.353-.176-.353-.388V6.412z"/>
    <path fill="#216C58" d="M11.176 9.447c.33-.11.676-.161 1.024-.153.612 0 1.07.118 1.394.33.235.153.388.353.47.588.089.235.306.459.606.459h1.782c.318 0 .606-.265.56-.612a3 3 0 0 0-.607-1.435q-.617-.796-1.694-1.23c-.717-.294-1.552-.435-2.494-.435-.929 0-1.764.141-2.5.435a4.2 4.2 0 0 0-1.764 1.224 2.86 2.86 0 0 0-.647 1.876 2.53 2.53 0 0 0 .988 2.094c.636.506 1.494.87 2.565 1.1l1.353.3c.611.135 1.964.341 1.964 1.194 0 .953-1.306 1.165-2.011 1.165-.841 0-1.941-.242-2.194-1.17-.071-.254-.294-.495-.6-.495H7.577a.55.55 0 0 0-.56.606c.077.659.295 1.223.66 1.706A4 4 0 0 0 9.5 18.27c.77.282 1.67.418 2.694.418q1.544.001 2.664-.412a3.86 3.86 0 0 0 1.736-1.212 3 3 0 0 0 .623-1.876 2.84 2.84 0 0 0-1.13-2.3 4.9 4.9 0 0 0-1.229-.694c-1.04-.412-3.605-.406-4.352-1.447a.6.6 0 0 1-.106-.4v-.006a.77.77 0 0 1 .188-.517c.13-.153.324-.283.588-.377"/>
    <path fill="#216C58" d="M11.706 8.689h-.883v1.352h.883zm0 4.81h-.883v1.342h.883zm0 4.036h-.883v1.347h.883zm1.764-8.846h-.882v1.352h.882zm0 4.81h-.882v1.342h.882zm0 4.036h-.882v1.347h.882z"/>
    <path fill="#216C58" d="M21.71 12.576a.3.3 0 0 0-.3.271A9.43 9.43 0 0 1 12 21.411c-4.94 0-8.982-3.759-9.411-8.564a.306.306 0 0 0-.3-.27c-.17 0-.3.14-.288.305A10.02 10.02 0 0 0 12 22c5.247 0 9.552-4.005 9.999-9.117a.282.282 0 0 0-.288-.306M2.296 11.424a.3.3 0 0 0 .3-.271A9.43 9.43 0 0 1 12 2.589c4.94 0 8.981 3.759 9.41 8.564a.3.3 0 0 0 .3.27c.171 0 .3-.14.289-.305a10.023 10.023 0 0 0-10-9.117 10.023 10.023 0 0 0-9.998 9.117.286.286 0 0 0 .288.306z"/>
</svg>
